apps/scalable/cura-icon.svg

<svg width="64" height="64" viewBox="0 0 64 64" fill="none" xmlns="http://www.w3.org/2000/svg">
<path opacity="0.01" d="M16.5168 2.00319C8.5192 2.00319 2.00317 8.73843 2.00317 16.9931V48.9987C2.00317 57.2534 8.52298 63.9962 16.5168 63.9962H47.4869C55.477 63.9962 62.0005 57.2572 62.0005 48.9987V16.9969C62.0005 8.74222 55.477 1.99941 47.4869 1.99941L16.5168 2.00319ZM17.4844 3.96858H46.5155C53.4851 3.96858 59.1016 9.76649 59.1016 16.9704V46.9691C59.1016 54.173 53.4889 59.9709 46.5155 59.9709H17.4882C10.5148 59.9709 4.90213 54.173 4.90213 46.9691V16.9704C4.90213 9.76649 10.5148 3.96858 17.4882 3.96858H17.4844Z" fill="black"/>
<path opacity="0.01" d="M16.4753 3.001C9.04078 3.001 3.00476 9.24868 3.00476 16.9326V49.0592C3.00476 56.7507 9.04078 62.9984 16.4753 62.9984H47.5285C54.9629 62.9984 60.9989 56.7507 60.9989 49.0592V16.9326C60.9989 9.2449 54.9629 2.99722 47.5285 2.99722L16.4753 3.001ZM17.5033 3.96858H46.5004C53.4624 3.96858 59.0676 9.76649 59.0676 16.9704V46.9691C59.0676 54.173 53.4624 59.9709 46.5004 59.9709H17.4995C10.5375 59.9709 4.93236 54.173 4.93236 46.9691V16.9704C4.93236 9.76649 10.5375 3.96858 17.4995 3.96858H17.5033Z" fill="black"/>
<path opacity="0.03" d="M16.2901 3.99882C9.23732 3.99882 3.53391 9.81562 3.53391 17.0006V49.0025C3.53391 56.1838 9.46788 62.0006 16.5168 62.0006H47.5095C54.5623 62.0006 60.4622 56.1875 60.4622 48.9987V17.0006C60.4622 9.8194 54.755 4.0026 47.7061 4.0026H47.3395C54.1201 4.33142 59.4871 9.98192 59.4871 16.9742V46.9729C59.4871 54.1768 53.795 59.9747 46.7234 59.9747H17.2803C10.2087 59.9747 4.5166 54.1768 4.5166 46.9729V16.9704C4.5166 9.97814 9.88363 4.32764 16.6642 3.99882H16.2901Z" fill="black"/>
<path opacity="0.03" d="M3.99997 46.969V49C3.99997 55.648 9.89597 61 16.544 61H47.505C54.153 61 60 55.648 60 49V47.008C59.9988 48.7131 59.6615 50.4013 59.0073 51.9759C58.3531 53.5505 57.3949 54.9807 56.1875 56.1847C54.9801 57.3887 53.5471 58.3428 51.9707 58.9925C50.3942 59.6422 48.7051 59.9747 47 59.971H17.002C15.2935 59.9748 13.601 59.6411 12.0218 58.9891C10.4426 58.337 9.00775 57.3794 7.79964 56.1713C6.59153 54.9632 5.63396 53.5284 4.9819 51.9492C4.32984 50.37 3.99615 48.6775 3.99997 46.969Z" fill="black"/>
<path opacity="0.05" d="M3.99881 44.9999V47.2374C3.99881 54.5661 9.94412 60.466 16.5924 60.466H47.434C54.0861 60.466 60.0011 54.5661 60.0011 47.2374V45.0453C59.9785 52.9635 54.1919 59.3322 46.9993 59.3322H17.0006C9.8005 59.3322 3.99881 52.9371 3.99881 44.9999Z" fill="black"/>
<path d="M46.998 4H17.002C9.82119 4 4 9.82119 4 17.002V46.998C4 54.1788 9.82119 60 17.002 60H46.998C54.1788 60 60 54.1788 60 46.998V17.002C60 9.82119 54.1788 4 46.998 4Z" fill="url(#paint0_linear_5_12)"/>
<path d="M36.5173 47C33.76 47 31.296 46.6333 29.1253 45.9C26.9547 45.1373 25.1213 44.0813 23.6253 42.732C22.1293 41.3533 20.9853 39.7253 20.1933 37.848C19.4013 35.9707 19.0053 33.888 19.0053 31.6C19.0053 29.312 19.4013 27.2293 20.1933 25.352C20.9853 23.4747 22.1293 21.8613 23.6253 20.512C25.1507 19.1333 26.984 18.0773 29.1253 17.344C31.296 16.5813 33.76 16.2 36.5173 16.2H41.1813V23.636H36.8253C35.476 23.636 34.288 23.8413 33.2613 24.252C32.2347 24.6627 31.384 25.2347 30.7093 25.968C30.0347 26.672 29.5213 27.508 29.1693 28.476C28.8467 29.444 28.6853 30.4853 28.6853 31.6C28.6853 32.7147 28.8467 33.756 29.1693 34.724C29.5213 35.692 30.0347 36.5427 30.7093 37.276C31.384 37.98 32.2347 38.5373 33.2613 38.948C34.288 39.3587 35.476 39.564 36.8253 39.564H41.1813V47H36.5173Z" fill="white"/>
<defs>
<linearGradient id="paint0_linear_5_12" x1="4" y1="4" x2="60" y2="60" gradientUnits="userSpaceOnUse">
<stop stop-color="#3FD8FD"/>
<stop offset="1" stop-color="#0472F9"/>
</linearGradient>
</defs>
</svg>

<svg width="64" height="64" fill="none" xmlns="http://www.w3.org/2000/svg"><path opacity=".01" d="M16.517 2.003c-7.998 0-14.514 6.735-14.514 14.99V49c0 8.254 6.52 14.997 14.514 14.997h30.97C55.477 63.996 62 57.257 62 49V16.997c0-8.255-6.524-14.998-14.514-14.998l-30.97.004Zm.967 1.966h29.032c6.97 0 12.586 5.797 12.586 13.001v30c0 7.203-5.613 13-12.586 13H17.488c-6.973 0-12.586-5.797-12.586-13v-30c0-7.204 5.613-13.001 12.586-13.001h-.004Z" fill="#000"/><path opacity=".01" d="M16.475 3.001c-7.434 0-13.47 6.248-13.47 13.932v32.126C3.005 56.751 9.04 63 16.475 63h31.053c7.435 0 13.47-6.248 13.47-13.94V16.933c0-7.688-6.035-13.936-13.47-13.936l-31.053.004Zm1.028.968H46.5c6.962 0 12.568 5.797 12.568 13.001v30c0 7.203-5.606 13-12.568 13h-29c-6.963 0-12.568-5.797-12.568-13v-30C4.932 9.766 10.537 3.97 17.5 3.97h.003Z" fill="#000"/><path opacity=".03" d="M16.29 3.999C9.237 3.999 3.534 9.816 3.534 17v32.001c0 7.182 5.934 12.999 12.983 12.999H47.51c7.052 0 12.952-5.813 12.952-13.002V17c0-7.182-5.707-12.998-12.756-12.998h-.367c6.781.328 12.148 5.979 12.148 12.971v29.999c0 7.204-5.692 13.002-12.764 13.002H17.28c-7.071 0-12.763-5.798-12.763-13.002V16.97C4.517 9.978 9.884 4.328 16.664 4h-.374Z" fill="#000"/><path opacity=".03" d="M4 46.969V49c0 6.648 5.896 12 12.544 12h30.961C54.153 61 60 55.648 60 49v-1.992a12.972 12.972 0 0 1-13 12.963H17.002A12.975 12.975 0 0 1 4 46.969Z" fill="#000"/><path opacity=".05" d="M3.999 45v2.237c0 7.33 5.945 13.229 12.593 13.229h30.842c6.652 0 12.567-5.9 12.567-13.229v-2.192c-.023 7.919-5.81 14.287-13.002 14.287H17.001C9.8 59.332 3.999 52.937 3.999 45Z" fill="#000"/><path d="M46.998 4H17.002C9.822 4 4 9.821 4 17.002v29.996C4 54.178 9.821 60 17.002 60h29.996C54.178 60 60 54.179 60 46.998V17.002C60 9.822 54.179 4 46.998 4Z" fill="url(#a)"/><path d="M36.517 47c-2.757 0-5.221-.367-7.392-1.1-2.17-.763-4.004-1.819-5.5-3.168a13.93 13.93 0 0 1-3.432-4.884c-.792-1.877-1.188-3.96-1.188-6.248 0-2.288.396-4.37 1.188-6.248a13.505 13.505 0 0 1 3.432-4.84c1.526-1.379 3.359-2.435 5.5-3.168 2.171-.763 4.635-1.144 7.392-1.144h4.664v7.436h-4.356c-1.349 0-2.537.205-3.564.616-1.026.41-1.877.983-2.552 1.716a7.066 7.066 0 0 0-1.54 2.508 9.82 9.82 0 0 0-.484 3.124 9.82 9.82 0 0 0 .484 3.124 7.525 7.525 0 0 0 1.54 2.552c.675.704 1.526 1.261 2.552 1.672 1.027.41 2.215.616 3.564.616h4.356V47h-4.664Z" fill="#fff"/><defs><linearGradient id="a" x1="4" y1="4" x2="60" y2="60" gradientUnits="userSpaceOnUse"><stop stop-color="#3FD8FD"/><stop offset="1" stop-color="#0472F9"/></linearGradient></defs></svg>
